art/standard/gamepad/luna/leftshoulder.svg

<svg width="100px" height="100px" preserveAspectRatio="none" version="1.1" viewBox="0 0 100 100" xmlns="http://www.w3.org/2000/svg">
 <g transform="matrix(-1 0 0 1 100.04 0)">
  <g>
   <path d="m90.05 58.1c3.5333-11.667 2.7-21.967-2.5-30.9-2.2667-3.9-5.85-5.85-10.75-5.85-15.633 4.3333-35.5 7.4-59.6 9.2-6.8 0.9-9.8833 5-9.25 12.3 0.36667 4.4 0.55 13.233 0.55 26.5 0.46667 6.5333 3.7167 9.6167 9.75 9.25 23.333-1.6667 43.917-4.8 61.75-9.4 5.1-2.1 8.45-5.8 10.05-11.1" fill="#313131"/>
   <path d="m77.892 30.038s-30.732 7.6646-57.794 9.0583l0.5 30.931s19.276 0.98308 58.882-9.0053c8.5229-13.749 3.9981-23.636-1.5877-30.984z" fill="#4f4f4f"/>
   <path transform="matrix(-1 0 0 1 100.04 0)" d="m40.25 42.2-2.85-0.45v14.85l8.2 1.3v-3l-5.35-0.85v-11.85m13.4 2.3q-0.85-0.25-1.7-0.4l-4.85-0.8v14.85l5.35 0.9q0.85 0.15 1.75 0.05 0.8-0.05 1.5-0.45 0.7-0.35 1.15-1.05 0.5-0.7 0.5-1.9 0-0.7-0.2-1.4-0.25-0.65-0.6-1.2-0.4-0.5-0.9-0.9-0.55-0.4-1.15-0.6v-0.05q1-0.15 1.6-0.9 0.65-0.7 0.65-2 0-1.2-0.45-2.05-0.4-0.75-1.1-1.3-0.65-0.5-1.55-0.8m0.2 4.2q0 0.45-0.15 0.75t-0.45 0.4q-0.25 0.2-0.55 0.25t-0.65-0.05l-2.05-0.3v-3.2l1.9 0.3q0.35 0.05 0.7 0.15 0.35 0.15 0.6 0.35 0.3 0.25 0.45 0.6 0.2 0.3 0.2 0.75m-1.7 4.15q0.35 0.05 0.7 0.15 0.45 0.15 0.8 0.4 0.35 0.2 0.6 0.6 0.2 0.3 0.2 0.85 0 0.45-0.15 0.8-0.2 0.3-0.45 0.45-0.3 0.15-0.65 0.2t-0.7 0l-2.5-0.4v-3.4l2.15 0.35z" fill="#999"/>
   <g>
    <path d="m20.25 68.75-0.5-26.75c-0.03333-1.7333 0.8-2.7167 2.5-2.95 22.367-1.7667 40.933-4.8 55.7-9.1 1.9975 2.1252 3.3756 4.6941 4.35 7.45 1.2667 3.4 1.6333 7.3833 1.1 11.95-0.75494 6.417-2.6948 10.7-5.25 11.6-16.3 4.4667-35.033 7.5-56.2 9.1-1.0882 0.04106-1.5768-0.5814-1.7-1.3z" fill="none" stroke="#626262" stroke-linecap="round" stroke-linejoin="round" stroke-width="4"/>
   </g>
   <path d="m76.8 21.35q7.35 0 10.75 5.85 7.8 13.4 2.5 30.9-2.4 7.95-10.05 11.1-26.75 6.9-61.75 9.4-9.05 0.55-9.75-9.25 0-19.9-0.55-26.5-0.95-10.95 9.25-12.3 36.15-2.7 59.6-9.2z" fill="none" stroke="#1b1b1b" stroke-linecap="round" stroke-linejoin="round" stroke-width="5"/>
  </g>
 </g>
</svg>

<svg xmlns="http://www.w3.org/2000/svg" version="1.1" xmlns:xlink="http://www.w3.org/1999/xlink" preserveAspectRatio="none" x="0px" y="0px" width="100px" height="100px" viewBox="0 0 100 100">
<defs/>

<g id="Luna">
<g>
<g>
<g>
<path fill="#313131" stroke="none" d="
M 92.05 42.85
Q 93 31.9 82.8 30.55 46.65 27.85 23.2 21.35 15.85 21.35 12.45 27.2 4.65 40.6 9.95 58.1 12.35 66.05 20 69.2 46.75 76.1 81.75 78.6 90.8 79.15 91.5 69.35 91.5 49.45 92.05 42.85
M 77.75 39.05
Q 80.3 39.4 80.25 42
L 80.25 42.05
Q 79.75 48.75 79.75 68.75 79.6 69.45 79.05 69.8 78.65 70.05 78 70
L 78.05 70.05
Q 46.3 67.65 21.85 60.95 19.65 59.75 19.7 59.05 17.45 56.2 16.6 49.35 15.8 42.5 17.7 37.4 19.5 32.65 21.55 30.45 22 29.95 22.05 29.95 44.2 36.4 77.75 39.05
M 19.7 59.05
Q 19.65 59.75 21.85 60.95 46.3 67.65 78.05 70.05
L 78 70
Q 78.65 70.05 79.05 69.8 47 67.3 22.05 60.95 19.75 59.7 19.7 59.05 Z"/>

<path fill="#4F4F4F" stroke="none" d="
M 80.25 42
Q 80.3 39.4 77.75 39.05 44.2 36.4 22.05 29.95 22 29.95 21.55 30.45 19.5 32.65 17.7 37.4 15.8 42.5 16.6 49.35 17.45 56.2 19.7 59.05 19.75 59.7 22.05 60.95 47 67.3 79.05 69.8 79.6 69.45 79.75 68.75 79.75 48.75 80.25 42.05
L 80.25 42
M 51.95 44.1
Q 52.8 44.25 53.65 44.5 54.55 44.8 55.2 45.3 55.9 45.85 56.3 46.6 56.75 47.45 56.75 48.65 56.75 49.95 56.1 50.65 55.5 51.4 54.5 51.55
L 54.5 51.6
Q 55.1 51.8 55.65 52.2 56.15 52.6 56.55 53.1 56.9 53.65 57.15 54.3 57.35 55 57.35 55.7 57.35 56.9 56.85 57.6 56.4 58.3 55.7 58.65 55 59.05 54.2 59.1 53.3 59.2 52.45 59.05
L 47.1 58.15 47.1 43.3 51.95 44.1
M 37.4 41.75
L 40.25 42.2 40.25 54.05 45.6 54.9 45.6 57.9 37.4 56.6 37.4 41.75
M 52.85 53
Q 52.5 52.9 52.15 52.85
L 50 52.5 50 55.9 52.5 56.3
Q 52.85 56.35 53.2 56.3 53.55 56.25 53.85 56.1 54.1 55.95 54.3 55.65 54.45 55.3 54.45 54.85 54.45 54.3 54.25 54 54 53.6 53.65 53.4 53.3 53.15 52.85 53
M 53.7 49.45
Q 53.85 49.15 53.85 48.7 53.85 48.25 53.65 47.95 53.5 47.6 53.2 47.35 52.95 47.15 52.6 47 52.25 46.9 51.9 46.85
L 50 46.55 50 49.75 52.05 50.05
Q 52.4 50.15 52.7 50.1 53 50.05 53.25 49.85 53.55 49.75 53.7 49.45 Z"/>

<path fill="#999999" stroke="none" d="
M 40.25 42.2
L 37.4 41.75 37.4 56.6 45.6 57.9 45.6 54.9 40.25 54.05 40.25 42.2
M 53.65 44.5
Q 52.8 44.25 51.95 44.1
L 47.1 43.3 47.1 58.15 52.45 59.05
Q 53.3 59.2 54.2 59.1 55 59.05 55.7 58.65 56.4 58.3 56.85 57.6 57.35 56.9 57.35 55.7 57.35 55 57.15 54.3 56.9 53.65 56.55 53.1 56.15 52.6 55.65 52.2 55.1 51.8 54.5 51.6
L 54.5 51.55
Q 55.5 51.4 56.1 50.65 56.75 49.95 56.75 48.65 56.75 47.45 56.3 46.6 55.9 45.85 55.2 45.3 54.55 44.8 53.65 44.5
M 53.85 48.7
Q 53.85 49.15 53.7 49.45 53.55 49.75 53.25 49.85 53 50.05 52.7 50.1 52.4 50.15 52.05 50.05
L 50 49.75 50 46.55 51.9 46.85
Q 52.25 46.9 52.6 47 52.95 47.15 53.2 47.35 53.5 47.6 53.65 47.95 53.85 48.25 53.85 48.7
M 52.15 52.85
Q 52.5 52.9 52.85 53 53.3 53.15 53.65 53.4 54 53.6 54.25 54 54.45 54.3 54.45 54.85 54.45 55.3 54.3 55.65 54.1 55.95 53.85 56.1 53.55 56.25 53.2 56.3 52.85 56.35 52.5 56.3
L 50 55.9 50 52.5 52.15 52.85 Z"/>
</g>
</g>

<g>
<path stroke="#626262" stroke-width="4" stroke-linejoin="round" stroke-linecap="round" fill="none" d="
M 19.7 59.05
Q 17.45 56.2 16.6 49.35 15.8 42.5 17.7 37.4 19.5 32.65 21.55 30.45 22 29.95 22.05 29.95 44.2 36.4 77.75 39.05 80.3 39.4 80.25 42
L 80.25 42.05
Q 79.75 48.75 79.75 68.75 79.6 69.45 79.05 69.8 78.65 70.05 78 70
L 78.05 70.05
Q 46.3 67.65 21.85 60.95 19.65 59.75 19.7 59.05 Z"/>
</g>

<g>
<path stroke="#1B1B1B" stroke-width="5" stroke-linejoin="round" stroke-linecap="round" fill="none" d="
M 91.5 69.35
Q 91.5 49.45 92.05 42.85 93 31.9 82.8 30.55 46.65 27.85 23.2 21.35 15.85 21.35 12.45 27.2 4.65 40.6 9.95 58.1 12.35 66.05 20 69.2 46.75 76.1 81.75 78.6 90.8 79.15 91.5 69.35 Z"/>
</g>
</g>
</g>
</svg>
